X:1
T:I. Chanson d'Orkenise
T:V. Sanglots
T:Banalités
T:Francis Poulenc FP 107
T: Guillaume Apollinaire  
T:à Suzette
C:Francis Poulenc
Z:Guillaume Apollinaire
%%score 1 { ( 2 3 7 8 ) | ( 4 5 6 ) }
L:1/8
Q:1/4=66
M:3/4
K:A
V:1 treble nm="Chant"
V:2 treble nm="Piano"
V:3 treble 
V:7 treble 
V:8 treble 
V:4 treble 
V:5 treble 
V:6 treble 
V:1
"^Très calme" z6[Q:1/4=66]"^Très calme" | z6 | z6 | z6 | z6 | z6 | z6 |[M:4/4]!p! c c c4 ^d d | %8
w: |||||||Notre a- mour est ré-|
 e3 e ^d d B B |[M:2/4] =d2 d z |[M:4/4] z!mf! c A A B B F2 | z A A A G G ^D D | %12
w: glé par les cal- mes é-|toi- les|Or nous sa- vons qu'en nous|beau- coup d'hom- mes res- pi- rent|
 z F ^A A ^E E A2- |[M:6/4] A z ^A A !breath!=A4 G2 B2 |[M:3/4] c6- | c2- c z z2 || %16
w: Qui vin- rent de très loin|_ et sont sous nos fronts|_||
[K:Gb]!p![Q:1/4=70]"^Animer un peu mais très progresssivement" E2 E E E2 | F F G4 | %18
w: C'est la chan- son|des rê- veurs|
[M:4/4]!mp!!<(! D D E2 F G D!<)! E |[M:3/4] B2- B z z2 |!mf!"^très lié"[Q:1/4=72]"^T" (G2 A2 B2 | %21
w: Qui s'é- taient ar- ra- ché le|cœur _|Et le por-|
 e3 d e B | G4 G) z |!f! F F F2 F F | B3!>(! B B B | d d!>)! =c2- c z | %26
w: taient dans la main|droi- te|Sou- viens- t'en cher or-|gueil! de tous ces|sou- ve- nirs _|
[Q:1/4=76]"^Animer encore un peu"!mf![Q:1/4=76]"^Animer encore un peu" B B B2 F F | F3 F A!<(! B | %28
w: Des ma- rins qui chan-|taient com- me des|
 A B!<)!!f! f4 | z!mf! F F F G G | A2- A/ z/ A __B B | F F A2- A z |!f! (3z _f f (3e e e =d2 | %33
w: con- qué- rants|Des gouf- fres de Thu-|lé _ des ten- dres|cieux d'O- phir _|Des ma- la- des mau- dits|
 z _d!>(! =c c _c c!>)! |!p! B2 __B2 z2 |!mf! =G2 G G!<(! =A =B!<)! |!f! =e4 =B!>(! B | %37
w: de ceux qui fuient leur|om- bre|Et du re- tour joy-|eux des heu-|
[Q:1/4=72]"^Céder à peine"[Q:1/4=72]"_Céder à peine" =G2 G2!>)! _G2 | %38
w: reux é- mi-|
[Q:1/4=66]"^Tempo I°"[Q:1/4=66]"^Tempo I°" G2- G z z2 | z2 z2!pp! B B | B2 =A A f f | %41
w: grants _|De ce|cœur il cou- lait du|
[M:2/4] B2- B/ z/ B |[M:3/4] B B A3 =G | e e A3 A | B B _G G E E | F2 F2- F z | %46
w: sang _ Et|Le rê- veur al-|lait pen- sant A|sa bles- su- re dé- li-|ca- te _|
 z!f! ^C/ C/ !>!C C/ C/ =E z/ E/ | !>!=A/ A/ A/ A/ =E2 E z | z!mf! _A2 =G/ G/ _G G/ z/ | %49
w: Tu ne bri- se- ras pas la|chaî- ne de ces cau- ses|Et dou- lou- reus- se|
 z B =A A _A2 | z!f! =c (3=G G G (3^F G =A | =c2!>(!"^molto" c2- c!>)! z | z!p! B B B _c2 | %53
w: et nous di- sait|Qui sont les ef- fets d'au- tres|cau- ses _|Mon pau- vre cœur|
 z d d d e2- | e/ z/ e g g f f | B B d2 d z | z/!mf! G/ B/ z/ z/ G/ G/ G/ F F/ F/ | %57
w: mon cœur bri- sé|_ Pa- reil au cœur de|tous les hom- mes|Voi- ci voi- ci nos mains que la|
 G G/ G/ B2 B2- | B[Q:1/4=62]"^Céder un peu" z[Q:1/4=70]"^Céder un peu" z2 z!f! B | %59
w: vie fit es- cla- ves|_ Est|
[Q:1/4=66]"^Strictement au mouvt"[Q:1/4=66]"^Strictement au mouvt" g g B2 z __B | %60
w: mort d'a- mour ou|
 A e e2 =d/ z/!p! d |"^très doux" g g B3 __B | A e e2- e/ z/!mf! =d ||[K:A] c3 c A A | %64
w: c'est tout com- me Est|mort d'a- mour et|le voi- ci _ Ain-|si vont tou- tes|
 _c2 B2- B/ z/ G | B B A2 z F | A A G2- G z |!f! f2 F3 F | f f =G2 G z |!mf! =G2 F3 F | %70
w: cho- ses _ Ar-|ra- chez donc le|vôtre aus- si _|Et rien ne|se- ra li- bre|jus- qu'à la|
!>(!"^molto" c c F2- F!>)! z | z2!p! =D D ^D B | A2- A z"^très lié" =D D | C2 ^B,2 ^D2 | %74
w: fin des temps _|Lais- sons tout aux|morts _ Et ca-|chons nos san-|
!>(! ^A4-!>)! A z |[Q:1/4=62]"_Céder à peine" z6 | !fermata!z6 |] %77
w: glots. _|||
V:2
!mp! c'4- f2 | c'3- c'/(c'/4^d'/4 e'd' | c'2) (b2 gb | c'4) a2 | (b2 f2 a2 | ^d4) (f2 | %6
 =d2 ^B2 A2) |[M:4/4]"^très lié"!p! (c6 ^d2 | e4 ^d2 B2 |[M:2/4] =d4) |[M:4/4] c2 A2 B2 F2 | %11
 A4 G2 ^D2 | F2 ^A2 ^E4 |[M:6/4] z2 ^A2 =A4 (G2 B2) |[M:3/4] !tenuto!c6 | !tenuto!c6 || %16
[K:Gb]!p! !arpeggio![EGBe]4 !arpeggio![DFB]2 | !arpeggio![Bdf]2 !arpeggio![GBdg]4 | %18
[M:4/4]!mp! ([FAd]2 [GBe]2 [FBdf]2!<(! [GBdg]2)[I:staff +1]({A,,,A,,E,G,C)[I:staff -1](B,EGB)(Be-g-)}!<)! | %19
[M:3/4]!f! [Begb]4 [Aea]2 |!mf! ([Beg]2 [Bf]2 [GBe]2) |{_F-A-} ([Ad]4 [Beg]2) | (G4 E2) | %23
!f! ([FA]2 [FB]2 F2 | [EB]4) (G2 | [DG]2 =c4) | %26
!mf!"_les accords bien arpégés" (!arpeggio![DFB]2 !arpeggio![A,=CF]2 !arpeggio![FA=c]2 | %27
 !arpeggio![FAd]4 !arpeggio![FA=c]2 | !arpeggio![DFA]2 !arpeggio![DFB]2 !arpeggio![FA=c]2) | %29
!mf! ([Fc=df]4 [cdg]2 | [=cea]4 [ce__b]2 | [A=cf]2 [cfa]2 [FAc]2) | %32
 !tenuto![A_c_f]2 !tenuto![Ace]2 !tenuto![_FA=d]2 | %33
 !tenuto![FA_d]2!>(! !tenuto![FA=c]2 !tenuto![FA_c]2!>)! |!p! !tenuto!B2!>(! (__B2 A2)!>)! | %35
!mf! !tenuto![e=g]2 !tenuto![Be]2!<(! !tenuto![^D=G]2!<)! |!f! !tenuto![=E=G]4 =B2 | %37
 [_c=d]4 [_B_g]2 | (!>!bc)!pp! z (B ge) | (!>!bc) z (B ge) |!pp! (be) =a=c f'f |[M:2/4] (bB) fF | %42
[M:3/4] (bB) aA =g=G | (e'e) aA eE | (Be) GB CG |"^à l'aise" !>!f6 | %46
!f! !tenuto!=A2 !tenuto!=B2 !tenuto!=E2 | !tenuto!=A2 !tenuto!=E2 !tenuto!^C2 |!mf! (_A2 =G2 _G2) | %49
 (B2 =A2 _A2) | !tenuto!=c2 !tenuto!=G2 !tenuto!^F2 | %51
 !tenuto!=c2!>(!"_molto" !tenuto!=G2 !tenuto!^F2!>)! |!pp! (B4 c2) | (A4 B2) | ([_G__B]4 A2) | %55
 !tenuto!F2 !tenuto!=G4 |!mf! !tenuto![_GB]2 !tenuto![=DG]2 !tenuto![D=F]2 | %57
 !tenuto![_GB]2 !tenuto![=DG]2 !tenuto![D=F]2 |"^tenu" !tenuto!B6 |!f! (G2 B2 __B2) | (A2 e2 =d2) | %61
!p! !tenuto![gbd'g']6 | (A2 e2 =d2) ||[K:A]!mf! (c2 e2 a2 | c2 =d2 g2) | (G2 e2 A2) | (A2 G4) | %67
!f! (B2 A4) | (A2 =G4) |!mf! (=G2 F4) |!>(! (c2 F4)!>)! |!p! (A4 B2 | A6) |!mf! (C2 ^B,2 ^D2) | %74
 (^A6 |!p!!>(! ([=A^d]2) [=Bf]2 [^B=d]2)!>)! |!ppp! [cfc']6 |] %77
V:3
 z c2 c2 c | z c2 c2 c | z c2 c2 c | z c2 c2 c | z ^d z =d z c | z ^B z B z =B | z A z ^G z =G | %7
[M:4/4] z C2 C2 C z ^D | z E2 E z ^D z B, |[M:2/4] z =D2 D |[M:4/4] cC AF B^D FB, | %11
 z C2 C G^B, ^DB, | z ^A,^A^D z B,A=D |[M:6/4] z ^A,^A^D z ^B,2 B, z =D z =G |[M:3/4] c!p!F- F4 | %15
 (cF-) F4 ||[K:Gb] E E2 E B,B, | FF G G2 [DGB] |[M:4/4] DD E!<(!E x2!<)! x2 | %19
[M:3/4] z [Beg]2 [Be-g] x2 | GG FF EE |{C-} [C_F] [CF]2 [CF] x2 | [DE] [DE]2 [DE] CC | %23
 [C_D][CD] [CD][CD] [CD][CD] | B, B,2 B, D!>(!D | B,B, [EG]!>)! [EG]2 [EF] | B,B, F,F, =CC | %27
 D D2 D =CC | A,A, B,B, =CC | FF CC GG | AA =CC __BB | FF AA C2 | _FF EE =DD | _DD =CC =DD | %34
 [=DF][DF] [DF] [DF]2!pp! [DF] | [=GB]G EE =A,A, | [=G,=B,] [G,B,]2 [G,B,] [B,=E][B,E] | %37
 [=D=G]!>(! [DG]2 [DG]!>)! x2 | x6 | x6 | !tenuto!b2 !tenuto!=a2 !tenuto!f'2 | %41
[M:2/4] !tenuto!b2 !tenuto!f2 |[M:3/4] !tenuto!b2 !tenuto!a2 !tenuto!=g2 | %43
 !tenuto!e'2 !tenuto!a2 !tenuto!e2 | !tenuto!B2 !tenuto!_G2 !tenuto!E2 |{C-F-B-} [CFB]6 | %46
 [=A,^C=E][A,CE] [=B,=E^G][B,EG] [^G,C][G,C] | [=A,^C=E][A,CE] [^G,=B,][G,B,] x2 | %48
 [__B,_D][B,D] [B,D][B,D] [B,D][B,D] | [D_F][DF] [DF][DF] [DF][DF] | %50
 [=CE=G][CEG] [=G,CE][G,CE] [=A,CE][A,CE] | [=CE=G][CEG] [=G,CE][G,CE] [=A,CE][A,CE] | %52
 !arpeggio![B,E_G] [B,EG]2 [B,EG] !arpeggio![CEG][CEG] | [D_F] [DF]2 [DF] [E=G][EG] | %54
 !arpeggio![=CE] [EG]2 [EG] [=DF][DF] | [A,D][A,D] [DF]!>(! [DF]2!>)! [DF] | B,B, G,G, F,F, | %57
 B,B, G,G, F,F, | (G G2 G2 =D) | [B,=D][B,D] [DG][DG] [=CE][CE] | [_CG][CG] [FA][FA] [=G=B][GB] | %61
 z [_B,_D_G] [DG][DG] [=CE][CE] | [_CG][CG] [FA][FA] [=G=B]2 ||[K:A] (EA) (Ac) (ce) | %64
 (DF) (FG) (Bd) | (A,=E) (AE) (^DF) | =B, =D2 (D2 C) | [B,CE][B,CE] [A,CE] [A,CE]2 [A,CE] | %68
 [A,B,D][A,B,D] [=G,B,D]!>(! [G,B,D]2!>)! [G,B,D] | x2 [^A,C] [A,C]2 [A,C] | %70
 [C^DF][CDF] [B,D] [B,D]2 [B,D] | [A,=D] [A,D]2 [A,D] [B,F][B,F] | [A,=D] [A,D]2 [A,D]- [A,D]2 | %73
 z A,2 A,2 A, | [=B,^DF]!>(! [B,DF]2!>)! [B,DF]- [B,DF]2 | x6 | z2"^(dessus)" !fermata!F,4 |] %77
V:4
"_Durant toute cette mélodie, se servir beaucoup des pédales"!ped! (F2 F2 F2) | (F2 F2 F2) | %2
 (F2 F2 F2) | (F2 F2 F2) | (F2 F2 F2) | (F2 F2 F2) | (F2 F2 F2) |[M:4/4][K:bass] F,2 F,2 F,2 F,2 | %8
 F,2 F,2 F,2 F,2 |[M:2/4] F,2 F,2!ped-up! |[M:4/4] F,2 F,2 F,2 F,2 | F,2 F,2 F,2 F,2 | %12
 F,2 F,2 F,2 F,2 |[M:6/4] F,2 F,2 F,2 F,2 z4 | %14
[M:3/4]"^très estompé" [F,,,F,,]2 [F,,,F,,]2 [F,,,F,,]2 | [F,,,F,,]2 [F,,,F,,]2 [F,,,F,,]2 || %16
[K:Gb] (E,, B,,2) B,, G,G, | !arpeggio![B,D][B,D] [B,D] [B,D]2 B, | %18
[M:4/4] A,A, A,A, [B,D][B,D]!ped! [B,D]2 |[M:3/4][K:treble] (c2 (C2) (F,2)!ped-up! | %20
[K:bass] [E,,B,,G,]2) [G,B,]2 B,2 | z2 (G,2 _F2) |"_tenu" z2 (G,,2 G,2) | (B,2 A,2 B,,2) | %24
 z2 (G,2 E,2) | z2 (B,2 =A,2) | B,,,B,,, B,,B,, A,A, | [A,B,] [A,B,]2 [A,B,] A,A, | F,F, A,2 B,2 | %29
 [A,_C]4 [C=D][CD] | [=CE][CE] G,G, [G,CE]2 | [A,=C]4 A,2 | _CC CC CC | C6 | (B,2 _C4) | %35
 E2 B,2 [=B,,,=B,,]2 | z2 (=B,,2 =G,2) | A,4 =D2 |[K:treble] ([EG]2 [EG]2 [EG]2) | %39
 ([EG]2 [EG]2 [EG]2) | [EG]2 [EG]2 ([=DFB]2 |[M:2/4] [=DF]2 D2) |[M:3/4] [_DF]2 [D_F]2 [DF]2 | %43
 [=CEA]2 [CE]2 C2 |[K:bass] z2 (A,2 A,,2) | z2 (A,2 F,2) | (^C,,2 ^C,2 =A,,2) | %47
 (^C,,2 =E,,2 =A,,2) | _F,2 =F,2 _G,2 | (=G,2 =A,2 _B,2) | ([=A,,,=A,,]2 [=E,,=E,]2 [E,,E,]2) | %51
 ([=A,,,=A,,]2 [=E,,=E,]2 [E,,E,]2) | z2[K:treble] (B,2 B2) |[K:bass] B,,6[K:treble] | %54
[K:bass] z2 (=C2 _C2) | z2 (B,2 _F,2) | (=D,2 B,,2 B,,,2) | (=D,,2 _C,,2 B,,,2) | %58
"_m.g. en dehors" (!>!=D2 B,2 __B,2) | z2 (E,2 G,2) | z2 (_C2!>(! F2)!>)! | z2 (E,2 G,2) | %62
 z2 (_C2 F2) ||[K:A] (A,2 C2 E2) | (G,2 B,2 ^E2) | C,2 C,2 ^B,2 | (F,2 ^E,4) | z2 F,2 F2 | %68
[K:treble]"_(dessus)" !tenuto!f2 !tenuto!F2[K:bass] !tenuto!F,2 | %69
"^à l'aise"{E,-^A,-C-} [E,A,C][E,A,C] (E,2 F,2) | (^D,2 ^A,2 G,2) | (=D,2 F,2 ^D,2) | (=D,2 F,4) | %73
 (^D,4 ^B,,2) |!ped! z2 (^D,2 ^D2)!ped-up! |[K:treble]!ped! (^B,2 =D2 ^D2)!ped-up! | %76
!ped! !fermata![CFA]6!ped-up! |] %77
V:5
 x6 | x6 | x6 | x6 | x6 | x6 | x6 |[M:4/4][K:bass] x8 | x8 |[M:2/4] x4 |[M:4/4] x8 | x8 | x8 | %13
[M:6/4] x12 |[M:3/4] x2 z"^m.d." (F, C,C) | x2 z (F, C,C) ||[K:Gb] E,,,4 !arpeggio![E,,-B,,]2 | %17
 !arpeggio!G,2 E,4 |[M:4/4] [B,,A,]2 [E,,B,,]2 G,2- G,2 |[M:3/4][K:treble] x6 |[K:bass] x6 | %21
 [G,,,G,,]6 | !tenuto!C,,6 | x6 | G,,6 | G,,6 | [B,,,,B,,,]2 B,,,2 [B,,F,]2 | F,4 B,,2- | B,,6 | %29
 =D,D, A,,A,, [G,A,]2 | [G,A,]2 A,,2 x2 | =D,D, A,,A,, D,D, |{/A,,} A,,2{/C,} C,2{/=D,} D,2 | %33
 (F,2 =G,2 A,2) | x6 | B,B, =G,G, x2 | [=E,,,=E,,]6 | B,,6 |[K:treble] x6 | x6 | x6 |[M:2/4] x4 | %42
[M:3/4] x6 | x6 |[K:bass] [_CE]4 x2 | D,6 | x6 | x4 [=E,=A,][E,A,] | x6 | x6 | x6 | x6 | %52
 x2[K:treble] x4 |[K:bass] x2[K:treble] (B,2 D2) |[K:bass] B,,6 | B,,6 | x6 | x6 | x6 | %59
 [A,,,A,,]6 | [D,,D,]6 | [A,,,A,,]6 | [D,,D,]6 ||[K:A] C,6 | C,6 | z2 C,4 | C,6 | [F,,,F,,]6 | %68
[K:treble] x4[K:bass] x2 | [F,,,F,,-]2 F,,4 | F,,6 | F,,6 | F,,6- | F,,6 | [G,,,G,,]6 | %75
[K:treble] F6 | x6 |] %77
V:6
 x6 | x6 | x6 | x6 | x6 | x6 | x6 |[M:4/4][K:bass] x8 | x8 |[M:2/4] x4 |[M:4/4] x8 | x8 | x8 | %13
[M:6/4] x12 |[M:3/4] x6 | x6 ||[K:Gb] x6 | E,,2 x4 |[M:4/4] x8 |[M:3/4][K:treble] x6 |[K:bass] x6 | %21
 x6 | E, E,2 E, x2 | x6 | x6 | x6 | x6 | x6 | x6 | x6 | x6 | x6 | x6 | x6 | x6 | x6 | x6 | x6 | %38
[K:treble] x6 | x6 | x6 |[M:2/4] x4 |[M:3/4] x6 | x6 |[K:bass] x6 | x6 | x6 | x6 | x6 | x6 | x6 | %51
 x6 | x2[K:treble] x4 |[K:bass] x2[K:treble] x4 |[K:bass] x6 | x6 | x6 | x6 | x6 | x6 | x6 | x6 | %62
 x6 ||[K:A] x6 | x6 | C,,4- C,,2 | x6 | x6 |[K:treble] x4[K:bass] x2 | x6 | x6 | x6 | x6 | x6 | %74
 x6 |[K:treble] x6 | x6 |] %77
V:7
 x6 | x6 | x6 | x6 | x6 | x6 | x6 |[M:4/4] x8 | x8 |[M:2/4] x4 |[M:4/4] x8 | x8 | x8 |[M:6/4] x12 | %14
[M:3/4] x6 | x6 ||[K:Gb] x6 | x6 |[M:4/4] x8 |[M:3/4] x6 | x6 | x6 | x6 | x6 | x6 | x6 | x6 | x6 | %28
 x6 | x2 [=DFAc]2 x2 | x2 [EA=c]2 x2 | x6 | x6 | x6 | x6 | x6 | x6 | x6 | x6 | x6 | x6 | %41
[M:2/4] x4 |[M:3/4] x6 | x6 | x6 | z (=d2 c2 A) | x6 | x6 | x6 | x6 | x6 | x6 | x6 | x6 | x6 | x6 | %56
 x6 | x6 | x6 | x6 | x6 | x2 (B2 __B2) | x6 ||[K:A] x6 | x6 | x6 | x6 | x6 | x6 | x6 | x6 | x6 | %72
 x6 | x6 | x6 | x6 | x6 |] %77
V:8
 x6 | x6 | x6 | x6 | x6 | x6 | x6 |[M:4/4] x8 | x8 |[M:2/4] x4 |[M:4/4] x8 | x8 | x8 |[M:6/4] x12 | %14
[M:3/4] x6 | x6 ||[K:Gb] x6 | x6 |[M:4/4] x8 |[M:3/4] x6 | x6 | x6 | x6 | x6 | x6 | x6 | x6 | x6 | %28
 x6 | x6 | x6 | x6 | x6 | x6 | x6 | x6 | x6 | x6 | x6 | x6 | x6 |[M:2/4] x4 |[M:3/4] x6 | x6 | x6 | %45
 x2 F2 =D2 | x6 | x6 | x6 | x6 | x6 | x6 | x6 | x6 | x6 | x6 | x6 | x6 | x6 | x6 | x6 | x6 | x6 || %63
[K:A] x6 | x6 | x6 | x6 | x6 | x6 | x6 | x6 | x6 | x6 | x6 | x6 | x6 | x6 |] %77

